X: 731
T: Lebanon
C:traditional
B: jims roots
M:4/8
L:1/8
Q: 1/4=100
K:D
V:1 
%TablEdited by Jim Kendrick
A,B, | "D"[D2D2]DF BAFE | DFAd Bcd2 | dedB AFED | "A"A,2 A,B, CA,B,C |
"D"[D2D2]DF BAFE | DFAd Bcd2 | dedB AFED | "A"A,2 A,B, CA,B,C | "A"[D2D] DED2:|
Bc | "D"dedB AFED | A,6 EF | "G"G2 F2 EDCD |"A"E8 |
ABAG FGA2 | "G"{^A}[B8D8] | {^A}[B3D3]d BGEG | {^A}[B8D8] | "A"[E2e2][Ee]d [Ec]Acd |
{^A}[B3D3]d BGDB,| G,8 | "A"[e4a4][e3a3][Ae] |[ca][ea]-[e2a2][e2a2]cB | ABAG FDEF | "D"D6 |]
V:E2e 
V:Ee 
d [Ec]Acd | [e6E] cB | ABAG FDED | "D"D6 FG||
V:E6e6 
 cB | ABAG FDEF | "D"D6 FG || ABAG FG A2 | {^A}"G"[B8D8] |
% abcbook-tune_id 6298c25d30637723713de5d5


% abcbook-boost 0
% abcbook-tablature 
% abcbook-transpose 
% abcbook-lastupdated 1654178399694
% abcbook-soundfonts 
% abcbook-repeats 1


